resources/icons/20px/many-to-one.svg

<svg width="20" height="20" viewBox="0 0 20 20" fill="none" xmlns="http://www.w3.org/2000/svg">
<path d="M3.00001 1.99999C2.73479 1.99999 2.48044 2.10535 2.2929 2.29288C2.10536 2.48042 2.00001 2.73477 2.00001 2.99999C2.00001 3.26521 2.10536 3.51956 2.2929 3.7071C2.48044 3.89463 2.73479 3.99999 3.00001 3.99999C3.26522 3.99999 3.51958 3.89463 3.70711 3.7071C3.89465 3.51956 4.00001 3.26521 4.00001 2.99999C4.00001 2.73477 3.89465 2.48042 3.70711 2.29288C3.51958 2.10535 3.26522 1.99999 3.00001 1.99999ZM3.00001 5.99999C2.20436 5.99999 1.4413 5.68392 0.878688 5.12131C0.316078 4.5587 8.00763e-06 3.79564 8.00763e-06 2.99999C0.000594867 2.29029 0.252681 1.60377 0.711501 1.06233C1.17032 0.520886 1.80618 0.159574 2.50617 0.0425501C3.20615 -0.0744737 3.92496 0.0603648 4.53494 0.423121C5.14493 0.785877 5.60661 1.35307 5.83801 2.02399C6.47101 2.06599 7.32901 2.18199 8.18501 2.49999C9.58701 3.02299 11.053 4.12499 11.481 6.30699C11.74 7.62499 12.566 8.27299 13.513 8.62499C13.7481 8.71301 13.9894 8.78321 14.235 8.83499C14.5039 8.19685 14.9853 7.67139 15.5975 7.34776C16.2098 7.02413 16.9151 6.92226 17.5938 7.05944C18.2726 7.19662 18.883 7.56439 19.3215 8.10036C19.76 8.63633 19.9996 9.3075 19.9996 9.99999C19.9996 10.6925 19.76 11.3636 19.3215 11.8996C18.883 12.4356 18.2726 12.8034 17.5938 12.9405C16.9151 13.0777 16.2098 12.9758 15.5975 12.6522C14.9853 12.3286 14.5039 11.8031 14.235 11.165C13.997 11.217 13.753 11.285 13.513 11.375C12.566 11.727 11.74 12.375 11.481 13.693C11.052 15.875 9.58701 16.977 8.18501 17.5C7.32901 17.818 6.47101 17.934 5.83801 17.976C5.60802 18.6453 5.14885 19.2119 4.54163 19.5755C3.93441 19.9391 3.21821 20.0764 2.51956 19.9631C1.82092 19.8498 1.1848 19.4933 0.723574 18.9564C0.262352 18.4196 0.0057159 17.737 -0.000994165 17.0293C-0.00770423 16.3215 0.235943 15.6342 0.686904 15.0887C1.13786 14.5432 1.76711 14.1746 2.46348 14.0481C3.15985 13.9216 3.87853 14.0453 4.49253 14.3974C5.10654 14.7494 5.57637 15.3071 5.81901 15.972C6.38833 15.9336 6.94963 15.8169 7.48701 15.625C8.43401 15.273 9.26001 14.625 9.51901 13.307C9.84201 11.663 10.753 10.632 11.783 9.99999C10.753 9.36799 9.84201 8.33699 9.51901 6.69299C9.26001 5.37499 8.43401 4.72699 7.48701 4.37499C6.90601 4.15799 6.30701 4.06699 5.82001 4.02799C5.40001 5.17899 4.29601 5.99999 3.00001 5.99999ZM16 9.99999C16 10.2652 16.1054 10.5196 16.2929 10.7071C16.4804 10.8946 16.7348 11 17 11C17.2652 11 17.5196 10.8946 17.7071 10.7071C17.8947 10.5196 18 10.2652 18 9.99999C18 9.73477 17.8947 9.48042 17.7071 9.29288C17.5196 9.10535 17.2652 8.99999 17 8.99999C16.7348 8.99999 16.4804 9.10535 16.2929 9.29288C16.1054 9.48042 16 9.73477 16 9.99999ZM2.00001 17C2.00001 17.2652 2.10536 17.5196 2.2929 17.7071C2.48044 17.8946 2.73479 18 3.00001 18C3.26522 18 3.51958 17.8946 3.70711 17.7071C3.89465 17.5196 4.00001 17.2652 4.00001 17C4.00001 16.7348 3.89465 16.4804 3.70711 16.2929C3.51958 16.1053 3.26522 16 3.00001 16C2.73479 16 2.48044 16.1053 2.2929 16.2929C2.10536 16.4804 2.00001 16.7348 2.00001 17Z" fill="black"/>
</svg>

<svg xmlns="http://www.w3.org/2000/svg" viewBox="0 0 20 20">
  <path d="M3 2a1 1 0 1 0 0 2 1 1 0 0 0 0-2m0 4a3 3 0 1 1 2.838-3.976c.633.042 1.491.158 2.347.476 1.402.523 2.868 1.625 3.296 3.807.259 1.318 1.085 1.966 2.032 2.318q.353.132.722.21a3 3 0 1 1 0 2.33c-.238.052-.482.12-.722.21-.947.352-1.773 1-2.032 2.318-.429 2.182-1.894 3.284-3.296 3.807-.856.318-1.714.434-2.347.476a3.001 3.001 0 1 1-.019-2.004 6.2 6.2 0 0 0 1.668-.347c.947-.352 1.773-1 2.032-2.318.323-1.644 1.234-2.675 2.264-3.307-1.03-.632-1.941-1.663-2.264-3.307-.259-1.318-1.085-1.966-2.032-2.318a6.2 6.2 0 0 0-1.667-.347A3 3 0 0 1 3 6m13 4a1 1 0 1 0 2 0 1 1 0 0 0-2 0M2 17a1 1 0 1 0 2 0 1 1 0 0 0-2 0"/>
</svg>
